src/icons/ce-application.svg

<svg height="39" viewBox="0 0 46 39" width="46" xmlns="http://www.w3.org/2000/svg"><path d="m100.000212 0-23.000212 11.5001062 23.000212 11.5001063 23.000788-11.5001063zm0 24.9167052-17.2501589-8.6250797-5.7500531 2.8750266 23.000212 11.5001062 23.000788-11.5001062-5.750053-2.8750266zm0 7.6676958-17.2501589-8.6262297-5.7500531 2.8750266 23.000212 11.5006813 23.000788-11.5006813-5.750053-2.8750266z" fill="#e4e7eb" fill-rule="evenodd" transform="translate(-77)"/></svg>

<?xml version="1.0" encoding="UTF-8"?>
<svg width="46px" height="39px" viewBox="0 0 46 39" version="1.1" xmlns="http://www.w3.org/2000/svg" xmlns:xlink="http://www.w3.org/1999/xlink">
    <!-- Generator: Sketch 62 (91390) - https://sketch.com -->
    <title>Application</title>
    <desc>Created with Sketch.</desc>
    <g id="GA-Use-cases" stroke="none" stroke-width="1" fill="none" fill-rule="evenodd">
        <g id="Overview---Full-Data-(GA)" transform="translate(-266.000000, -755.000000)" fill="#E4E7EB">
            <g id="App" transform="translate(67.000000, 620.000000)">
                <g id="Group-19" transform="translate(122.000000, 135.000000)">
                    <path d="M100.000212,2.27373675e-13 L77,11.5001062 L100.000212,23.0002125 L123.001,11.5001062 L100.000212,2.27373675e-13 Z M100.000212,24.9167052 L82.7500531,16.2916255 L77,19.1666521 L100.000212,30.6667583 L123.001,19.1666521 L117.250947,16.2916255 L100.000212,24.9167052 Z M100.000212,32.584401 L82.7500531,23.9581713 L77,26.8331979 L100.000212,38.3338792 L123.001,26.8331979 L117.250947,23.9581713 L100.000212,32.584401 Z" id="Application"></path>
                </g>
            </g>
        </g>
    </g>
</svg>
